; generated by PrusaSlicer 2.4.2+arm64 on 2022-05-11 at 14:00:18 UTC


;
;

;
;
; 

; external perimeters extrusion width = 0.45mm
; perimeters extrusion width = 0.45mm
; infill extrusion width = 0.45mm
; solid infill extrusion width = 0.45mm
; top infill extrusion width = 0.40mm
; support material extrusion width = 0.35mm
; first layer extrusion width = 0.42mm

M73 P0 R11
M201 X2500 Y2500 Z400 E5000 ; sets maximum accelerations, mm/sec^2
M203 X180 Y180 Z12 E80 ; sets maximum feedrates, mm / sec
M204 P1250 R1250 T2500 ; sets acceleration (P, T) and retract acceleration (R), mm/sec^2
M205 X8.00 Y8.00 Z2.00 E10.00 ; sets the jerk limits, mm/sec
M205 S0 T0 ; sets the minimum extruding and travel feed rate, mm/sec
M107
;TYPE:Custom
M862.3 P "MINI" ; printer model check
G90 ; use absolute coordinates
M83 ; extruder relative mode
M104 S170 ; set extruder temp for bed leveling
M140 S60 ; set bed temp
M109 R170 ; wait for bed leveling temp
M190 S60 ; wait for bed temp
M204 T1250 ; set travel acceleration
G28 ; home all without mesh bed level
G29 ; mesh bed leveling 
M204 T2500 ; restore travel acceleration
M104 S215 ; set extruder temp
G92 E0
G1 Y-2 X179 F2400
G1 Z3 F720
M109 S215 ; wait for extruder temp

; intro line
G1 X170 F1000
G1 Z0.2 F720
M73 P0 R10
G1 X110 E8 F900
G1 X40 E10 F700
G92 E0

M221 S95 ; set flow
G21 ; set units to millimeters
G90 ; use absolute coordinates
M83 ; use relative distances for extrusion
M900 K0.2 ; Filament gcode LA 1.5
; ; Filament gcode LA 1.0
M107
;LAYER_CHANGE
;Z:0.2
;HEIGHT:0.2
;BEFORE_LAYER_CHANGE
G92 E0.0
;0.2


M73 P1 R10
G1 E-3.2 F4200
M73 P2 R10
G1 Z.2 F720
;AFTER_LAYER_CHANGE
;0.2
G1 Z.4
G1 X76.195 Y78.893 F9000
G1 Z.2 F720
G1 E3.2 F2400
M204 P800
;TYPE:Skirt/Brim
;WIDTH:0.42
G1 F1200
G1 X77.932 Y77.91 E.06259
G1 X81.77 Y77.381 E.12146
G1 X98.626 Y77.41 E.52854
G1 X102.068 Y77.91 E.10904
G1 X103.414 Y78.502 E.04612
G1 X104.397 Y80.239 E.06259
G1 X104.926 Y84.077 E.12146
G1 X104.926 Y91.309 E.22677
G1 X104.119 Y93.257 E.06609
G1 X102.485 Y94.891 E.07247
G1 X100.538 Y95.698 E.06609
G1 X79.462 Y95.698 E.66079
G1 X77.515 Y94.891 E.06609
G1 X75.881 Y93.257 E.07247
M73 P3 R10
G1 X75.074 Y91.309 E.06609
G1 X75.074 Y84.077 E.22677
G1 X75.603 Y80.239 E.12146
G1 X76.171 Y78.948 E.04424
M204 P1000
G1 X76.525 Y79.113 F9000
M204 P800
G1 F1200
G1 X76.551 Y79.056 E.00195
G1 X77.986 Y78.283 E.05112
G1 X81.77 Y77.758 E.11975
G1 X98.572 Y77.783 E.52684
G1 X102.014 Y78.283 E.10904
G1 X103.251 Y78.858 E.04278
G1 X104.024 Y80.293 E.05112
G1 X104.549 Y84.077 E.11975
G1 X104.549 Y91.309 E.22677
G1 X103.853 Y92.99 E.05704
G1 X102.218 Y94.624 E.07247
G1 X100.538 Y95.321 E.05704
G1 X79.462 Y95.321 E.66079
G1 X77.782 Y94.624 E.05704
G1 X76.147 Y92.99 E.07247
G1 X75.451 Y91.309 E.05704
G1 X75.451 Y84.077 E.22677
G1 X75.976 Y80.293 E.11975
G1 X76.5 Y79.167 E.03895
M204 P1000
; printing object FDM id:0 copy 0
G1 E-2.24 F4200
;WIPE_START
G1 F7200
G1 X76.551 Y79.056 E-.06768
G1 X77.892 Y78.333 E-.84432
;WIPE_END
G1 E-.048 F4200
G1 Z.4 F720
G1 X98.73 Y80.635 F9000
G1 Z.2 F720
G1 E3.2 F2400
M204 P800
;TYPE:Support material
G1 F1200
G1 X101.672 Y80.635 E.09223
G1 X101.672 Y83.577 E.09223
G1 X102.172 Y84.077 E.02217
G1 X102.172 Y91.309 E.22677
G1 X100.538 Y92.944 E.07247
G1 X79.462 Y92.944 E.66079
G1 X77.828 Y91.309 E.07247
M73 P4 R10
G1 X77.828 Y84.077 E.22677
G1 X78.328 Y83.577 E.02217
G1 X78.328 Y80.635 E.09223
G1 X81.27 Y80.635 E.09223
G1 X81.77 Y80.135 E.02217
G1 X98.23 Y80.135 E.51612
G1 X98.69 Y80.595 E.0204
M204 P1000
G1 E-2.24 F4200
;WIPE_START
G1 F7200
G1 X98.23 Y80.135 E-.36051
G1 X97.235 Y80.135 E-.55149
;WIPE_END
G1 E-.048 F4200
G1 Z.4 F720
G1 X101.12 Y80.975 F9000
G1 Z.2 F720
G1 E3.2 F2400
M204 P800
G1 F1200
G1 X101.332 Y81.187 E.00941
G1 X101.332 Y81.779 E.01858
G1 X100.528 Y80.975 E.03568
G1 X99.935 Y80.975 E.01858
G1 X101.332 Y82.372 E.06195
G1 X101.332 Y82.964 E.01858
G1 X99.343 Y80.975 E.08823
G1 X98.939 Y80.975 E.01267
M204 P1000
G1 X98.09 Y80.475 F9000
M204 P800
G1 F1200
G1 X98.59 Y80.975 E.02217
G1 X98.75 Y80.975 E.00503
G1 X101.332 Y83.557 E.1145
G1 X101.332 Y83.717 E.00503
G1 X101.832 Y84.217 E.02217
G1 X101.832 Y84.649 E.01355
G1 X97.658 Y80.475 E.18512
G1 X97.065 Y80.475 E.01858
G1 X101.832 Y85.242 E.21139
G1 X101.832 Y85.834 E.01858
G1 X96.473 Y80.475 E.23766
G1 X95.88 Y80.475 E.01858
G1 X101.832 Y86.427 E.26394
G1 X101.832 Y87.019 E.01858
G1 X95.288 Y80.475 E.29021
G1 X94.695 Y80.475 E.01858
G1 X101.832 Y87.612 E.31648
G1 X101.832 Y88.204 E.01858
G1 X94.103 Y80.475 E.34276
G1 X93.51 Y80.475 E.01858
M73 P5 R10
G1 X101.832 Y88.797 E.36903
G1 X101.832 Y89.39 E.01858
G1 X92.918 Y80.475 E.3953
G1 X92.325 Y80.475 E.01858
G1 X101.832 Y89.982 E.42158
G1 X101.832 Y90.575 E.01858
G1 X91.733 Y80.475 E.44785
G1 X91.14 Y80.475 E.01858
G1 X101.832 Y91.167 E.47412
G1 X101.537 Y91.464 E.01314
G1 X90.547 Y80.475 E.48729
G1 X89.955 Y80.475 E.01858
G1 X101.241 Y91.76 E.50043
G1 X100.944 Y92.057 E.01314
G1 X89.362 Y80.475 E.51357
G1 X88.77 Y80.475 E.01858
G1 X100.648 Y92.353 E.5267
G1 X100.397 Y92.604 E.01114
M73 P6 R10
G1 X100.307 Y92.604 E.00282
G1 X88.177 Y80.475 E.53785
G1 X87.585 Y80.475 E.01858
G1 X99.714 Y92.604 E.53785
G1 X99.122 Y92.604 E.01858
G1 X86.992 Y80.475 E.53785
G1 X86.4 Y80.475 E.01858
G1 X98.529 Y92.604 E.53785
G1 X97.937 Y92.604 E.01858
G1 X85.807 Y80.475 E.53785
G1 X85.215 Y80.475 E.01858
G1 X97.344 Y92.604 E.53785
G1 X96.752 Y92.604 E.01858
G1 X84.622 Y80.475 E.53785
G1 X84.03 Y80.475 E.01858
M73 P7 R10
G1 X96.159 Y92.604 E.53785
G1 X95.567 Y92.604 E.01858
G1 X83.437 Y80.475 E.53785
G1 X82.845 Y80.475 E.01858
G1 X94.974 Y92.604 E.53785
G1 X94.382 Y92.604 E.01858
G1 X82.252 Y80.475 E.53785
G1 X81.91 Y80.475 E.01072
G1 X81.785 Y80.6 E.00555
G1 X93.789 Y92.604 E.53229
G1 X93.197 Y92.604 E.01858
G1 X81.489 Y80.896 E.51916
G1 X81.41 Y80.975 E.00348
G1 X80.975 Y80.975 E.01366
G1 X92.604 Y92.604 E.51567
G1 X92.012 Y92.604 E.01858
G1 X80.382 Y80.975 E.51567
M73 P8 R10
G1 X79.79 Y80.975 E.01858
G1 X91.419 Y92.604 E.51567
G1 X90.827 Y92.604 E.01858
G1 X79.197 Y80.975 E.51567
G1 X78.668 Y80.975 E.0166
G1 X78.668 Y81.038 E.00197
G1 X90.234 Y92.604 E.51288
G1 X89.642 Y92.604 E.01858
G1 X78.668 Y81.63 E.48661
G1 X78.668 Y82.223 E.01858
G1 X89.049 Y92.604 E.46034
G1 X88.457 Y92.604 E.01858
G1 X78.668 Y82.815 E.43406
G1 X78.668 Y83.408 E.01858
G1 X87.864 Y92.604 E.40779
G1 X87.271 Y92.604 E.01858
G1 X78.526 Y83.859 E.38779
G1 X78.23 Y84.155 E.01314
M73 P9 R10
G1 X86.679 Y92.604 E.37465
G1 X86.086 Y92.604 E.01858
G1 X78.168 Y84.685 E.35114
G1 X78.168 Y85.278 E.01858
G1 X85.494 Y92.604 E.32487
G1 X84.901 Y92.604 E.01858
G1 X78.168 Y85.87 E.29859
G1 X78.168 Y86.463 E.01858
G1 X84.309 Y92.604 E.27232
G1 X83.716 Y92.604 E.01858
G1 X78.168 Y87.055 E.24604
G1 X78.168 Y87.648 E.01858
G1 X83.124 Y92.604 E.21977
G1 X82.531 Y92.604 E.01858
G1 X78.168 Y88.24 E.1935
G1 X78.168 Y88.833 E.01858
G1 X81.939 Y92.604 E.16722
G1 X81.346 Y92.604 E.01858
G1 X78.168 Y89.425 E.14095
G1 X78.168 Y90.018 E.01858
G1 X80.754 Y92.604 E.11468
G1 X80.161 Y92.604 E.01858
M73 P9 R9
G1 X78.168 Y90.61 E.0884
G1 X78.168 Y91.169 E.0175
G1 X79.603 Y92.604 E.06365
G1 X79.973 Y92.604 E.01159
M204 P1000
; stop printing object FDM id:0 copy 0
M106 S84.15
;LAYER_CHANGE
;Z:0.366667
;HEIGHT:0.166667
;BEFORE_LAYER_CHANGE
G92 E0.0
;0.366667


G1 E-2.24 F4200
;WIPE_START
G1 F7200
G1 X79.603 Y92.604 E-.20483
G1 X78.701 Y91.702 E-.70717
;WIPE_END
G1 E-.048 F4200
G1 Z.4 F720
;AFTER_LAYER_CHANGE
;0.366667
M104 S210 ; set temperature
G1 X76.513 Y93.889 F9000
G1 Z.367 F720
G1 E3.2 F2400
;TYPE:Skirt/Brim
G1 F900
G1 X75.881 Y93.257 E.02382
G1 X75.074 Y91.309 E.05612
G1 X75.074 Y84.077 E.19256
G1 X75.603 Y80.239 E.10313
M73 P10 R9
G1 X76.195 Y78.893 E.03916
G1 X77.932 Y77.91 E.05314
G1 X81.77 Y77.381 E.10313
G1 X98.626 Y77.41 E.4488
G1 X102.068 Y77.91 E.09259
G1 X103.414 Y78.502 E.03916
G1 X104.397 Y80.239 E.05314
G1 X104.926 Y84.077 E.10313
G1 X104.926 Y91.309 E.19256
G1 X104.119 Y93.257 E.05612
G1 X102.485 Y94.891 E.06154
G1 X100.538 Y95.698 E.05612
G1 X79.462 Y95.698 E.56111
G1 X77.515 Y94.891 E.05612
G1 X76.556 Y93.932 E.03612
G1 X76.822 Y93.665 F9000
G1 F900
G1 X76.147 Y92.99 E.02542
G1 X75.451 Y91.309 E.04844
G1 X75.451 Y84.077 E.19256
G1 X75.976 Y80.293 E.10169
G1 X76.551 Y79.056 E.03633
G1 X77.986 Y78.283 E.04341
G1 X81.77 Y77.758 E.10169
G1 X98.572 Y77.783 E.44736
G1 X102.014 Y78.283 E.09259
M73 P11 R9
G1 X103.251 Y78.858 E.03633
G1 X104.024 Y80.293 E.04341
G1 X104.549 Y84.077 E.10169
G1 X104.549 Y91.309 E.19256
G1 X103.853 Y92.99 E.04844
G1 X102.218 Y94.624 E.06154
G1 X100.538 Y95.321 E.04844
G1 X79.462 Y95.321 E.56111
G1 X77.782 Y94.624 E.04844
G1 X76.865 Y93.708 E.03452
; printing object FDM id:0 copy 0
G1 E-2.24 F4200
;WIPE_START
G1 F7200
G1 X76.147 Y92.99 E-.56228
G1 X75.906 Y92.407 E-.34972
;WIPE_END
G1 E-.048 F4200
G1 Z.567 F720
G1 X80.772 Y83.232 F9000
G1 Z.367 F720
G1 E3.2 F2400
;TYPE:Support material
;WIDTH:0.35
G1 F900
G1 X80.772 Y85.079 E.0402
G1 X82.772 Y85.079 E.04355
G1 X82.772 Y83.079 E.04355
G1 X80.772 Y83.079 E.04355
G1 E-2.24 F4200
;WIPE_START
G1 F7200
G1 X82.417 Y83.079 E-.912
;WIPE_END
G1 E-.048 F4200
G1 Z.567 F720
G1 X97.228 Y83.079 F9000
G1 Z.367 F720
G1 E3.2 F2400
G1 F900
G1 X99.228 Y83.079 E.04355
G1 X99.228 Y85.079 E.04355
G1 X97.228 Y85.079 E.04355
G1 X97.228 Y83.232 E.0402
; stop printing object FDM id:0 copy 0
M106 S170.85
;LAYER_CHANGE
;Z:0.5
;HEIGHT:0.133333
;BEFORE_LAYER_CHANGE
G92 E0.0
;0.5


G1 E-2.24 F4200
;WIPE_START
G1 F7200
G1 X97.228 Y84.878 E-.912
;WIPE_END
G1 E-.048 F4200
G1 Z.567 F720
;AFTER_LAYER_CHANGE
;0.5
; printing object FDM id:0 copy 0
G1 X99.127 Y85.386 F9000
G1 Z.5 F720
G1 E3.2 F2400
;TYPE:Support material interface
;HEIGHT:0.3
G1 F1920
G1 X99.127 Y90 E.16438
G1 X98.62 Y90 E.01806
M73 P12 R9
G1 X98.62 Y85.386 E.16438
G1 X98.113 Y85.386 E.01806
G1 X98.113 Y90 E.16438
G1 X97.606 Y90 E.01806
G1 X97.606 Y85.386 E.16438
G1 X97.099 Y85.386 E.01806
G1 X97.099 Y90 E.16438
G1 X96.592 Y90 E.01806
G1 X96.592 Y83.079 E.24656
G1 X96.085 Y83.079 E.01806
G1 X96.085 Y90 E.24656
G1 X95.578 Y90 E.01806
G1 X95.578 Y83.079 E.24656
G1 X95.071 Y83.079 E.01806
G1 X95.071 Y90 E.24656
G1 X94.564 Y90 E.01806
G1 X94.564 Y83.079 E.24656
G1 X94.057 Y83.079 E.01806
G1 X94.057 Y90 E.24656
G1 X93.55 Y90 E.01806
G1 X93.55 Y83.079 E.24656
G1 X93.042 Y83.079 E.01806
G1 X93.042 Y90 E.24656
G1 X92.535 Y90 E.01806
G1 X92.535 Y83.079 E.24656
G1 X92.028 Y83.079 E.01806
G1 X92.028 Y90 E.24656
G1 X91.521 Y90 E.01806
G1 X91.521 Y83.079 E.24656
G1 X91.014 Y83.079 E.01806
G1 X91.014 Y90 E.24656
G1 X90.507 Y90 E.01806
G1 X90.507 Y83.079 E.24656
G1 X90 Y83.079 E.01806
G1 X90 Y90 E.24656
G1 X89.493 Y90 E.01806
G1 X89.493 Y83.079 E.24656
G1 X88.986 Y83.079 E.01806
G1 X88.986 Y90 E.24656
G1 X88.479 Y90 E.01806
G1 X88.479 Y83.079 E.24656
G1 X87.972 Y83.079 E.01806
G1 X87.972 Y90 E.24656
G1 X87.465 Y90 E.01806
G1 X87.465 Y83.079 E.24656
G1 X86.958 Y83.079 E.01806
G1 X86.958 Y90 E.24656
G1 X86.45 Y90 E.01806
G1 X86.45 Y83.079 E.24656
G1 X85.943 Y83.079 E.01806
G1 X85.943 Y90 E.24656
G1 X85.436 Y90 E.01806
M73 P13 R9
G1 X85.436 Y83.079 E.24656
G1 X84.929 Y83.079 E.01806
G1 X84.929 Y90 E.24656
G1 X84.422 Y90 E.01806
G1 X84.422 Y83.079 E.24656
G1 X83.915 Y83.079 E.01806
G1 X83.915 Y90 E.24656
G1 X83.408 Y90 E.01806
G1 X83.408 Y83.079 E.24656
G1 X83.079 Y83.079 E.01173
G1 X83.079 Y85.386 E.08219
G1 X82.901 Y85.386 E.00634
G1 X82.901 Y90 E.16438
G1 X82.394 Y90 E.01806
G1 X82.394 Y85.386 E.16438
G1 X81.887 Y85.386 E.01806
G1 X81.887 Y90 E.16438
G1 X81.38 Y90 E.01806
G1 X81.38 Y85.386 E.16438
G1 X80.873 Y85.386 E.01806
G1 X80.873 Y90 E.16438
; stop printing object FDM id:0 copy 0
;LAYER_CHANGE
;Z:0.533333
;HEIGHT:0.0333334
;BEFORE_LAYER_CHANGE
G92 E0.0
;0.533333


G1 E-2.24 F4200
;WIPE_START
G1 F7200
G1 X80.873 Y88.354 E-.912
;WIPE_END
G1 E-.048 F4200
G1 Z.7 F720
;AFTER_LAYER_CHANGE
;0.533333
G1 X75.074 Y88.354 F9000
G1 Z.533 F720
G1 E3.2 F2400
;TYPE:Skirt/Brim
;WIDTH:0.42
;HEIGHT:0.166667
G1 X75.074 Y84.077 E.11389
G1 X75.603 Y80.239 E.10313
G1 X76.195 Y78.893 E.03916
G1 X77.932 Y77.91 E.05314
G1 X81.77 Y77.381 E.10313
G1 X98.626 Y77.41 E.4488
G1 X102.068 Y77.91 E.09259
G1 X103.414 Y78.502 E.03916
G1 X104.397 Y80.239 E.05314
G1 X104.926 Y84.077 E.10313
G1 X104.926 Y91.309 E.19256
G1 X104.119 Y93.257 E.05612
G1 X102.485 Y94.891 E.06154
G1 X100.538 Y95.698 E.05612
G1 X79.462 Y95.698 E.56111
G1 X77.515 Y94.891 E.05612
G1 X75.881 Y93.257 E.06154
G1 X75.074 Y91.309 E.05612
G1 X75.074 Y88.414 E.07707
G1 X75.451 Y88.414 F9000
G1 F2400
G1 X75.451 Y84.077 E.11549
G1 X75.976 Y80.293 E.10169
G1 X76.551 Y79.056 E.03633
G1 X77.986 Y78.283 E.04341
G1 X81.77 Y77.758 E.10169
G1 X98.572 Y77.783 E.44736
G1 X102.014 Y78.283 E.09259
G1 X103.251 Y78.858 E.03633
G1 X104.024 Y80.293 E.04341
G1 X104.549 Y84.077 E.10169
G1 X104.549 Y91.309 E.19256
G1 X103.853 Y92.99 E.04844
G1 X102.218 Y94.624 E.06154
G1 X100.538 Y95.321 E.04844
G1 X79.462 Y95.321 E.56111
G1 X77.782 Y94.624 E.04844
M73 P14 R9
G1 X76.147 Y92.99 E.06154
G1 X75.451 Y91.309 E.04844
G1 X75.451 Y88.474 E.07548
; printing object FDM id:0 copy 0
G1 E-2.24 F4200
;WIPE_START
G1 F7200
G1 X75.451 Y86.829 E-.912
;WIPE_END
G1 E-.048 F4200
G1 Z.733 F720
G1 X80.772 Y90 F9000
G1 Z.533 F720
G1 E3.2 F2400
;TYPE:Support material
;WIDTH:0.35
;HEIGHT:0.0333333
G1 X82.772 Y90 E.0095
G1 X82.772 Y87.693 E.01096
G1 X80.772 Y87.693 E.0095
G1 X80.772 Y85.386 E.01096
G1 X82.772 Y85.386 E.0095
G1 X82.772 Y83.079 E.01096
G1 X82.75 Y83.079 E.0001
;HEIGHT:0.166667
G1 X80.772 Y83.079 E.04308
G1 E-2.24 F4200
;WIPE_START
G1 F7200
G1 X82.417 Y83.079 E-.912
;WIPE_END
G1 E-.048 F4200
G1 Z.733 F720
G1 X83.254 Y83.079 F9000
G1 Z.533 F720
G1 E3.2 F2400
;TYPE:Support material interface
;HEIGHT:0.0333333
G1 F1920
G1 X83.079 Y83.079 E.00083
G1 X83.079 Y90 E.03289
G1 X83.408 Y90 E.00156
G1 X83.408 Y83.079 E.03289
G1 X83.762 Y83.079 E.00168
G1 E-2.24 F4200
;WIPE_START
G1 F7200
G1 X83.408 Y83.079 E-.19592
G1 X83.408 Y84.371 E-.71608
;WIPE_END
G1 E-.048 F4200
G1 Z.733 F720
G1 X94.413 Y87.54 F9000
G1 Z.533 F720
G1 E3.2 F2400
G1 F1920
G1 X94.057 Y87.477 E.00172
G1 X94.057 Y87.693 E.00103
G1 X93.55 Y87.693 E.00241
G1 X93.55 Y87.397 E.00141
G1 X93.042 Y87.328 E.00243
G1 X93.042 Y87.693 E.00173
G1 X92.535 Y87.693 E.00241
G1 X92.535 Y87.27 E.00201
G1 X92.028 Y87.222 E.00242
G1 X92.028 Y87.693 E.00224
G1 X91.521 Y87.693 E.00241
G1 X91.521 Y87.186 E.00241
G1 X91.014 Y87.159 E.00241
G1 X91.014 Y87.693 E.00254
G1 X90.507 Y87.693 E.00241
G1 X90.507 Y87.144 E.00261
G1 X90 Y87.138 E.00241
G1 X90 Y87.693 E.00264
G1 X89.493 Y87.693 E.00241
G1 X89.493 Y87.144 E.00261
G1 X88.986 Y87.159 E.00241
G1 X88.986 Y87.693 E.00254
G1 X88.479 Y87.693 E.00241
G1 X88.479 Y87.186 E.00241
G1 X87.972 Y87.222 E.00242
G1 X87.972 Y87.693 E.00224
G1 X87.465 Y87.693 E.00241
G1 X87.465 Y87.27 E.00201
G1 X86.958 Y87.328 E.00243
G1 X86.958 Y87.693 E.00173
G1 X86.45 Y87.693 E.00241
G1 X86.45 Y87.398 E.0014
G1 X85.943 Y87.478 E.00244
G1 X85.943 Y87.693 E.00102
G1 X85.59 Y87.693 E.00168
G1 X85.792 Y87.504 F9000
G1 F1920
G1 X85.436 Y87.568 E.00172
G1 X85.436 Y87.693 E.00059
G1 X85.386 Y87.693 E.00024
G1 X85.386 Y90 E.01096
G1 X84.929 Y90 E.00217
G1 X84.929 Y87.671 E.01107
G1 X84.422 Y87.784 E.00247
G1 X84.422 Y90 E.01053
G1 X83.915 Y90 E.00241
G1 X83.915 Y87.908 E.00994
G1 X83.804 Y87.937 E.00055
G1 X83.654 Y87.799 E.00097
G1 X83.564 Y87.124 F9000
G1 F1920
G1 X83.654 Y86.835 E.00144
G1 X83.751 Y86.611 E.00116
G1 X83.915 Y86.37 E.00139
G1 X83.915 Y83.079 E.01564
G1 X84.422 Y83.079 E.00241
G1 X84.422 Y86.1 E.01436
G1 X84.929 Y86.094 E.00241
G1 X84.929 Y83.079 E.01433
G1 X85.436 Y83.079 E.00241
G1 X85.436 Y86.094 E.01433
G1 X85.943 Y86.094 E.00241
G1 X85.943 Y83.079 E.01433
G1 X86.45 Y83.079 E.00241
G1 X86.45 Y86.094 E.01433
G1 X86.557 Y86.094 E.00051
G1 X86.958 Y86.094 E.0019
G1 X86.958 Y83.079 E.01433
G1 X87.465 Y83.079 E.00241
G1 X87.465 Y86.094 E.01433
G1 X87.972 Y86.094 E.00241
G1 X87.972 Y83.079 E.01433
G1 X88.479 Y83.079 E.00241
G1 X88.479 Y86.094 E.01433
G1 X88.562 Y86.094 E.0004
G1 X88.986 Y86.094 E.00201
G1 X88.986 Y83.079 E.01433
G1 X89.493 Y83.079 E.00241
